!!!COM:      Bach, Johann Sebastian
!!!CDT:      1685/03/31/-1750/07/28/
!!!OPR@@GER: Das wohltemperirte Clavier
!!!OVM@@GER: Band II
!!!OPR@ENG:  Well-Tempered Clavier
!!!OVM@ENG:  Book II
!!!OTL:      Prelude
!!!OKY:      E minor
!!!ONM:      no. 10
!!!SCT:      BWV 879
!!!OMV:      1
**kern	**kern
*>[A,1. ending,A,2. ending,B,B]	*>[A,1. ending,A,2. ending,B,B]
*>norep[A,2. ending,B]	*>norep[A,2. ending,B]
*>A	*>A
*clefF4	*clefG2
*k[f#]	*k[f#]
*e:	*e:
*M3/8	*M3/8
*MM76	*MM76
=1-	=1-
8E	16r
.	16g
8EE	16a
.	16b
8r	16cc
.	16a
=2	=2
4.r	16b
.	16g
.	16f#
.	16e
.	16d#
.	16a
=3	=3
16r	32g
.	32f#
16G	16e
16A	8ee
16B	.
16c	8r
16A	.
=4	=4
16B	32dd#
.	32cc#
16G	16b
16F#	8aa
16E	.
16D#	8r
16A	.
=5	=5
16G	16r
16E	16g
16F#	16a
16G	16b
16A	16cc
16F#	16a
=6	=6
8G	16b
.	16g
8A	16f#
.	16e
8B	16d#
.	16a
=7	=7
8E	16g
.	16b
8D	16cc
.	16dd
8C	16ee
.	16cc
=8	=8
8BB	16dd
.	16b
8C	16a
.	16g
8D	16f#
.	16cc
=9	=9
8GG	16b
.	16dd
8FF#	16ee
.	16ff#
8EE	16gg
.	16ee
=10	=10
8DD	16ff#
.	16dd
8EE	16cc#
.	16b
8FF#	16a#
.	16ee
=11	=11
16BB	16dd
16D	16ff#
16E	16ee
16F#	16dd
16G	16cc#
16E	16b
=12	=12
16F#	32a#
.	32g#
16D	16f#
16C#	8ee
16BB	.
16AA#	8r
16E	.
=13	=13
16D	16r
16BB	16dd
16C#	16ee
16D	16ff#
16E	16gg
16C#	16ee
=14	=14
8D	16ff#
.	16dd
8E	16cc#
.	16b
8F#	16a#
.	16ee
=15	=15
8BB	16dd
.	16b
8B	16cc#
.	16dd
8A#	16ee
.	16cc#
=16	=16
8B	16dd
.	16b
8F#	16a
.	16g
8D	16f#
.	16ccn
=17	=17
16G	16b
16B	16g
16c	16ee
16d	16b
16e	16cc
16c	16aa
=18	=18
16d	16b
16B	16dd
16A	8gg
16G	.
16F#	8aW
16c	.
=19	=19
16B	16g
16G	16e
16A	16cc
16B	16g
16c	16a
16A	16ff#
=20	=20
16B	16g
16G	16b
16F#	8ee
16E	.
16D#	8f#w
16A	.
=21	=21
16G	16e
16E	16g
16F#	16a
16G	16b
16A	16cc
16F#	16a
=22	=22
16G	32b
.	32a
16E	16g
16D	8ffn
16C	.
16BB	8r
16Fn	.
=23	=23
16E	16r
16GG	16e
16AA	16f#X
16BB	16g
[8C	16a
.	16f#
=24	=24
16C]	16g
16BB	16d
16C#	16e
16D	16f#
16E	[8g
16C#	.
=25	=25
16D	16g]
16AA	16f#
16BB	16g#
16Cn	16a
[8D	16b
.	16g#
=26	=26
16D]	16a
16C#	16e
16D#	16f#
16E	16gn
16F#	[8a
16D#	.
=27	=27
16E	16a]
16BB	16g#
16C#	16a#
16Dn	16b
[8E	16cc#
.	16a#
=28	=28
16E]	16b
16D	16f#
16E	16g#
16F#	16a#
16G	[8b
16E	.
=29	=29
[4.F#t	16b]
.	16a#
.	16b
.	16cc#
.	16dd
.	16b
=30	=30
4.F#_	16cc#
.	16b
.	16a#
.	16g#
.	16f#
.	16e
=31	=31
4.F#_	16d
.	16f#
.	16g#
.	16a#
.	16b
.	16g#
=32	=32
4.F#]	16a#
.	16g#
.	16f#
.	16e
.	16d
.	16c#
=33	=33
16r	[4.Bt
16D#	.
16E	.
16F#	.
16G	.
16E	.
=34	=34
16F#	4.B_
16E	.
16D#	.
16C#	.
16BB	.
16AA	.
=35	=35
16GG	4.B_
16BB	.
16C#	.
16D#	.
16E	.
16C#	.
=36	=36
16D#	4.B_
16C#	.
16BB	.
16AA	.
16GG	.
16FF#	.
=37	=37
16EE	8B]
16Dn	.
16C#	[4e
16BB	.
16AA#	.
16C#	.
=38	=38
8FF#	16e]
.	16f#
[4G	16e
.	16d
.	16c#
.	16e
=39	=39
16G]	8A#
16F#	.
16E	[4cc#
16D	.
16C#	.
16E	.
=40	=40
8AA#	16cc#]
.	16dd
[4e	16cc#
.	16b
.	16a#
.	16cc#
=41	=41
16e]	8f#
16d	.
16c#	[4gg
16B	.
16A#	.
16c#	.
=42	=42
8F#	16gg]
.	16ff#
8G#	16ee
.	16dd
8A#	16cc#
.	16ee
=43	=43
16B	[4.dd
16A#	.
16B	.
16c#	.
16d	.
16B	.
=44	=44
16E#	16dd]
16F#	16cc#
16G#	16b
16An	16an
16B	16g#
16G#	16b
=45	=45
8C#	16e#
.	16dd
8E#	16cc#
.	16b
8F#	16a#
.	16cc#
=46	=46
8Gn	16ee
.	16gg
8AA#	16ff#
.	16ee
8BB	16dd
.	16ff#
=47	=47
8GG	8b
8EE	8cc#
8FF#	8a#S
=48	=48
*>1. ending	*>1. ending
16BB	4.b
16C#	.
16D#	.
16E	.
16F#	.
16D#	.
=49:|	=49:|
*>2. ending	*>2. ending
4.BB	4.b
=50|:	=50|:
*>B	*>B
16r	[4.ff#
16B	.
16A	.
16G	.
16F#	.
16A	.
=51	=51
16G	8ff#]
16B	.
16c#	16ee
16d	16ff#
16e	8gg
16A	.
=52	=52
16d	8ff#
16G	.
16A	8eeW
16B	.
16cn	8a
16F#	.
=53	=53
16B	8dd
16E	.
16F#	16cc
16G	16b
16A	[8cc
16D#	.
=54	=54
8G	16cc]
.	16b
8A	16a
.	16g
8B	16f#
.	16a
=55	=55
8E	16g
.	16b
8D	16cc
.	16dd
8C	16ee
.	16a
=56	=56
8BB	16dd
.	16g#
8EE	16a
.	16b
8AA	16cc
.	16f#
=57	=57
16DD	16b
16CC	16e
16DD	16f#
16EE	16g#
8FFn	16a
.	16d#
=58	=58
16EE	8g#
16E	.
16D	8a
16C	.
16BB	8b
16D	.
=59	=59
8C	16e
.	16ee
8D	16dd
.	16cc
8E	16b
.	16dd
=60	=60
16AA	8cc
16A	.
16G	8dd
16Fn	.
16E	8ee
16G	.
=61	=61
8Fn	16a
.	16aa
8G	16gg
.	16ffn
8A	16ee
.	16gg
=62	=62
16D	8ffn
16d	.
16c	8gg
16B	.
16A	[8aa
16c	.
=63	=63
8B	16aa]
.	16dd
8c	16cc
.	16b
8d	16a
.	16cc
=64	=64
16r	8b
16G	.
16Fn	8cc
16E	.
16D	[8dd
16F	.
=65	=65
16GG	16dd]
16Fn	16g
16E	16cc
16D	16dd
16C	[8ee
16E	.
=66	=66
16GG	16ee]
16E	16cc
16D	16dd
16C	16ee
16BB	[8ffn
16D	.
=67	=67
8GG	16ffn]
.	16gg
8AA	16ffn
.	16ee
8BB	16dd
.	16ff
=68	=68
16C	16ee
16d	16e
16c	16f#X
16B	16g#
16A	16a
16c	16f#
=69	=69
16BB	16dd
16c	16f#
16B	16g#
16A	16a
16G#	16b
16B	16g#
=70	=70
16AA	16cc
16B	16g#
16A	16a
16G#	16b
16F#	16cc
16A	16a
=71	=71
8D#	16cc
.	16b
8E	16a
.	16g#
8Fn	[8a
=72	=72
16E	16a]
16Dn	16b
8E	8.bw
8EE	.
.	16a
=73	=73
16AA	4.a
16A	.
16G	.
16F#X	.
16E	.
16G	.
=74	=74
8F#	16r
.	16dd
8D	16cc
.	16b
8F#	16a
.	16cc
=75	=75
8G	16b
.	16dd
8F#	16ee
.	16ff#
8E	16gg
.	16cc#
=76	=76
16D	16ff#
16G	16b
16A	16ccn
16B	16dd
[8c	16ee
.	16a
=77	=77
16c]	16dd
16B	16g
16A	16a
16G	16b
[8A	16cc
.	16f#
=78	=78
16A]	8b
16B	.
16A	8.dd#t
16G	.
16F#	.
16A	32cc#
.	32dd#
=79	=79
16G	8ee
16B	.
16c#	8ff#S
16d#	.
16e	[8gg
16A	.
=80	=80
16dn	16gg]
16G	16ff#
16A	16ee
16B	16dd#
16c	[8ee
16F#	.
=81	=81
16B	16ee]
16E	16ddn
16F#	16cc
16G	16b
16A	16cc
16D	16aa
=82	=82
16G	16b
16F#	16d
16G	16e
16A	16f#
16B	[8g
16c#	.
=83	=83
16d	16g]
16A	16f#
16B	16g#
16cn	16a
[8d	16b
.	16g#
=84	=84
16d]	16a
16c#	16e
16d#	16f#
16e	16gn
16f#	[8a
16d#X	.
=85	=85
16e	16a]
16E	16g
16F#	16a
16G	16b
16A	16cc
16F#	16a
=86	=86
8G	16b
.	16dd#
8F#	16ee
.	16ff#
8E	16gg
.	16ee
=87	=87
[4.Bt	16ff#
.	16ee
.	16dd#
.	16cc#
.	16b
.	16a
=88	=88
4.B_	16g
.	16b
.	16cc#
.	16dd#
.	16ee
.	16cc#
=89	=89
4.B]	16dd#
.	16cc#
.	16b
.	16a
.	16g
.	16f#
=90	=90
16r	[4.eT
16G#	.
16A	.
16B	.
16c	.
16A	.
=91	=91
16B	4.e_
16A	.
16G#	.
16F#	.
16E	.
16D	.
=92	=92
16C	4.e_
16E	.
16F#	.
16G#	.
16A	.
16F#	.
=93	=93
16G#	8e]
16F#	.
16E	[4dd
16D	.
16C	.
16BB	.
=94	=94
8AA	16dd]
.	16ee
8E	16dd
.	16cc
8G#	16b
.	16dd
=95	=95
16A	8cc
16B	.
16A	8ee
16Gn	.
16F#	[8aa
16A	.
=96	=96
8D#	16aa]
.	16bb
[4c	16aa
.	16gg
.	16ff#
.	16aa
=97	=97
16c]	8dd#
16A	.
16F#	[4ccc
16A	.
16D#	.
16F#	.
=98	=98
8BB	16ccc]
.	16bb
8.d#t	16aa
.	16gg
.	16ff#
32c#	16aa
32d#	.
=99	=99
16e	[4.gg
16d#	.
16e	.
16f#	.
16g	.
16e	.
=100	=100
16A#	16gg]
16B	16ff#
16c#	16ee
16dn	16ddn
16e	16cc#
16c#	16ee
=101	=101
8F#	16a#
.	16gg
8A#	16ff#
.	16ee
8B	16dd#
.	16ff#
=102	=102
8cn	16an
.	16cc
8D#	16b
.	16a
8E	16g
.	16b
=103	=103
8C	8e
8AA	8f#
8BB	8d#S
=104	=104
16CC	16e
16EE	16g#
16FF#	16a
16GG#	16b
16AA	16cc
16FF#	16a
=105	=105
16GG#	16b
16BB	16a
16C	16g#
16D	16f#
16E	16e
16F#	16dd
=106	=106
8Gn	16cc#
.	16dd#
8F#	16ee
.	16ff#
8E	16gg
.	16ee
=107	=107
8D#	16ff#
.	16ee
8BB	16dd#
.	16cc#
8D#	16b
.	16a
=108	=108
8E	8g
8AA	8a
8BB	8f#S
=109	=109
4.EE	4.e
==:|	==:|
*-	*-
!!!AFR:  prelude
!!!EFL:  67/96
!!!END:  1994/02/08/
!!!VID:  3321474914 Bach, BWV 879-01
!!!AST:  Baroque
!!!OCY:  Deutschland
!!!ODT:  1742///
!!!PDT:  1801///
!!!EED:  Walter Hewlett
!!!ENC:  Walter Hewlett
!!!YOR:  Bach Gesellschaft Edition xiv
!!!AFT:  enhanced SCORE
!!!RDT:  2011/10/07/ by Andreas Kornstaedt using massScr2hmd
!!!SCA1: Thematisch-systematisches Verzeichnis der musikalischen Werke 
!!!SCA2: Johann Sebastian Bach: Bach-Werke-Verzeichnis (Schmieder)
!!!YEC1: Copyright 1994, 2000 Center for Computer Assisted Research 
!!!YEC2: in the Humanities
!!!YEM1: Rights to all derivative editions reserved.
!!!YEM2: Refer to licensing agreement for further details.
!!!YEN:  United States of America
!!!ref:  @{OTL}, @{SCT}
!!muse2ps: T^@{OTL} @{ONM} in @{OKY}^C^J.S. Bach\n@{SCT}-@{OMV}^
!!muse2ps: u^@{OPR@ENG}, @{OVM@ENG}^j
